public/library/carbon-perpetuals-icon-dark.svg

<svg width="1545" height="1402" viewBox="0 0 1545 1402" fill="none" xmlns="http://www.w3.org/2000/svg">
<path fill-rule="evenodd" clip-rule="evenodd" d="M1362.01 0.000131079C1363.43 0.00421456 1366.69 0.0684461 1370.07 1.42064C1378.61 4.83793 1441.06 34.8843 1470.42 49.0797L1515 70.633L1466.16 78.773C1462.41 79.3974 1456.48 80.4817 1450.98 81.6769C1448.23 82.276 1445.73 82.8717 1443.74 83.4202C1442.67 83.7143 1441.96 83.9388 1441.53 84.0799C1441.06 84.4403 1440.42 84.9366 1439.61 85.5842C1437.56 87.2103 1434.77 89.5089 1431.36 92.3703C1424.54 98.0768 1415.54 105.781 1405.69 114.286C1397.26 121.565 1388.24 129.401 1379.5 137.023H1544.69L1484.39 178.528L1355.31 220.574L1321.93 300.512V439.958L1178.9 812.017L909.775 1061.29V921.456L895.851 936.936L878.123 1065.29L1015.83 1325.96L1068.95 1348.58L1097.48 1386.93H987.479L994.564 1402H726.929L750.275 1338.13L783.576 1317.17L633.368 1119.08V1082.4L526.078 1187.38L567.217 1029.92L484.656 1109.55L318.599 1145.05V1128.64L0 1393.3L39.1362 1080.21L144.764 989.936L165.409 890.782L389.418 654.771L564.008 506.965L681.754 431.914L692.089 431.709L847.664 256.992L883.829 257.182L1023.25 81.6159L1150.39 8.06127L1241.78 31.159C1260.49 25.2999 1286.88 17.3417 1310.15 10.9832C1322.67 7.56255 1334.51 4.54245 1343.84 2.56684C1348.47 1.58643 1352.79 0.796111 1356.41 0.368543C1358.2 0.156506 1360.13 -0.00526384 1362.01 0.000131079ZM758.36 1089.8L768.672 1078.34L912.551 1297.9L958.782 1328.91L961.787 1335.47L901.544 1312.15L758.36 1089.8ZM924.044 257.156L1036.62 256.927L990.435 289.22L891.428 288.699L861.524 288.76L734.993 430.86L824.601 429.085L791.425 462.261L699.494 463.046L691.217 463.21L582.722 532.364L411.067 677.686L194.4 905.96L183.928 956.256L291.057 864.062V906.311L169.342 1010.34L134.223 1040.56L134.276 1040.31L68.8574 1096.22L41.1053 1318.23L318.599 1087.71V1017.55L384.504 966.438V853.382L747.472 547.175V589.056L415.981 868.021V941.953L756.325 677.017V717.908L409.91 986.568L409.888 986.586L350.076 1032.97V1106.14L469.279 1080.65L582.492 971.46L582.503 971.42L585.731 968.337L686.485 871.162V915.626L610.701 988.015L585.242 1085.45L1088.9 592.685L1158.96 464.394L1100.04 375.755H1023.46L777.965 570.317V529.447L1008.2 347.682L1008.22 347.664L1012.51 344.278H1116.91L1195.7 462.798L1114.27 611.897L664.845 1051.61V1108.5L829.406 1325.51L776.146 1359.04L771.949 1370.52H944.991L940.51 1360.99L880.626 1337.81L718.878 1086.63L909.775 874.386V874.363L913.838 869.868L1062.24 704.871V752.652L941.251 886.482V989.231L1152.15 793.894L1290.45 434.116V294.204L1331.82 195.118L1413.54 168.5H1295.97L1327.26 140.949C1342.37 127.65 1365.33 107.547 1385.12 90.4607C1395.01 81.9239 1404.15 74.0991 1411.14 68.2415C1414.63 65.3208 1417.65 62.8287 1420 60.9621C1420.33 60.6988 1420.65 60.4421 1420.97 60.1937C1395.73 48.0748 1369.15 35.4061 1360.54 31.5781C1360.41 31.5925 1360.26 31.6089 1360.1 31.6276C1357.87 31.8916 1354.61 32.46 1350.36 33.3608C1341.92 35.1477 1330.77 37.9803 1318.45 41.3468C1293.88 48.062 1265.56 56.6535 1246.99 62.5182L1242.73 63.8642L1155.08 41.7131L1044.18 105.87L924.044 257.156ZM1361.92 31.4769C1362.1 31.4774 1362.06 31.4901 1361.84 31.4781C1361.88 31.4771 1361.9 31.4768 1361.92 31.4769ZM1442.3 83.5183C1442.3 83.5195 1442.27 83.5398 1442.22 83.5751C1442.28 83.5347 1442.31 83.5171 1442.3 83.5183ZM963.41 1294.11L845.555 1071.03L857.559 984.113L792.04 1056.57L935.382 1275.31L963.41 1294.11ZM1130.1 110.408L1165.48 128.199L1210.05 113.453L1219 95.6574L1184.2 78.5099L1138.34 94.0309L1130.1 110.408Z" fill="white"/>
</svg>

<svg xmlns="http://www.w3.org/2000/svg" width="1545" height="1402" fill="none" viewBox="0 0 1545 1402"><path fill="#fff" fill-rule="evenodd" d="M1362.01 0c1.42.004 4.68.068 8.06 1.42 8.54 3.418 70.99 33.464 100.35 47.66L1515 70.633l-48.84 8.14c-3.75.624-9.68 1.709-15.18 2.904-2.75.599-5.25 1.195-7.24 1.743-1.07.294-1.78.519-2.21.66-.47.36-1.11.857-1.92 1.504-2.05 1.626-4.84 3.925-8.25 6.786-6.82 5.707-15.82 13.411-25.67 21.916a7187 7187 0 0 0-26.19 22.737h165.19l-60.3 41.505-129.08 42.046-33.38 79.938v139.446L1178.9 812.017 909.775 1061.29V921.456l-13.924 15.48-17.728 128.354 137.707 260.67 53.12 22.62 28.53 38.35H987.479l7.085 15.07H726.929l23.346-63.87 33.301-20.96-150.208-198.09v-36.68l-107.29 104.98 41.139-157.46-82.561 79.63-166.057 35.5v-16.41L0 1393.3l39.136-313.09 105.628-90.274 20.645-99.154 224.009-236.011 174.59-147.806 117.746-75.051 10.335-.205 155.575-174.717 36.165.19L1023.25 81.616 1150.39 8.06l91.39 23.098c18.71-5.86 45.1-13.817 68.37-20.176 12.52-3.42 24.36-6.44 33.69-8.416 4.63-.98 8.95-1.77 12.57-2.198 1.79-.212 3.72-.374 5.6-.369M758.36 1089.8l10.312-11.46 143.879 219.56 46.231 31.01 3.005 6.56-60.243-23.32zm165.684-832.644 112.576-.229-46.185 32.293-99.007-.521-29.904.061-126.531 142.1 89.608-1.775-33.176 33.176-91.931.785-8.277.164-108.495 69.154-171.655 145.322L194.4 905.96l-10.472 50.296 107.129-92.194v42.249L169.342 1010.34l-35.119 30.22.053-.25-65.419 55.91-27.752 222.01L318.6 1087.71v-70.16l65.905-51.112V853.382l362.968-306.207v41.881L415.981 868.021v73.932l340.344-264.936v40.891L409.91 986.568l-.022.018-59.812 46.384v73.17l119.203-25.49 113.213-109.19.011-.04 3.228-3.083 100.754-97.175v44.464l-75.784 72.389-25.459 97.435L1088.9 592.685l70.06-128.291-58.92-88.639h-76.58L777.965 570.317v-40.87L1008.2 347.682l.02-.018 4.29-3.386h104.4l78.79 118.52-81.43 149.099-449.425 439.713v56.89l164.561 217.01-53.26 33.53-4.197 11.48h173.042l-4.481-9.53-59.884-23.18-161.748-251.18 190.897-212.244v-.023l4.063-4.495 148.402-164.997v47.781l-120.989 133.83v102.749l210.899-195.337 138.3-359.778V294.204l41.37-99.086 81.72-26.618h-117.57l31.29-27.551c15.11-13.299 38.07-33.402 57.86-50.488 9.89-8.537 19.03-16.362 26.02-22.22 3.49-2.92 6.51-5.412 8.86-7.279.33-.263.65-.52.97-.768-25.24-12.12-51.82-24.788-60.43-28.616-.13.015-.28.03-.44.05-2.23.264-5.49.832-9.74 1.733-8.44 1.787-19.59 4.62-31.91 7.986-24.57 6.715-52.89 15.307-71.46 21.171l-4.26 1.346-87.65-22.15-110.9 64.156zm437.876-225.68c.18.001.14.014-.08.002zm80.38 52.042-.08.057c.06-.04.09-.058.08-.057M963.41 1294.11l-117.855-223.08 12.004-86.917-65.519 72.457 143.342 218.74zM1130.1 110.408l35.38 17.791 44.57-14.746 8.95-17.796-34.8-17.147-45.86 15.52z" clip-rule="evenodd"/></svg>
